common/src/main/resources/files/plugins/datagrip/greenplumFileType.svg

<!--
  - The MIT License (MIT)
  -
  - Copyright (c) 2015-2024 Elior "Mallowigi" Boukhobza
  -
  - Permission is hereby granted, free of charge, to any person obtaining a copy
  - of this software and associated documentation files (the "Software"), to deal
  - in the Software without restriction, including without limitation the rights
  - to use, copy, modify, merge, publish, distribute, sublicense, and/or sell
  - copies of the Software, and to permit persons to whom the Software is
  - furnished to do so, subject to the following conditions:
  -
  - The above copyright notice and this permission notice shall be included in all
  - copies or substantial portions of the Software.
  -
  - THE SOFTWARE IS PROVIDED "AS IS", WITHOUT WARRANTY OF ANY KIND, EXPRESS OR
  - IMPLIED, INCLUDING BUT NOT LIMITED TO THE WARRANTIES OF MERCHANTABILITY,
  - FITNESS FOR A PARTICULAR PURPOSE AND NONINFRINGEMENT. IN NO EVENT SHALL THE
  - AUTHORS OR COPYRIGHT HOLDERS BE LIABLE FOR ANY CLAIM, DAMAGES OR OTHER
  - LIABILITY, WHETHER IN AN ACTION OF CONTRACT, TORT OR OTHERWISE, ARISING FROM,
  - OUT OF OR IN CONNECTION WITH THE SOFTWARE OR THE USE OR OTHER DEALINGS IN THE
  - SOFTWARE.
  -->
<svg data-big="true" width="16px" height="16px" viewBox="0 0 16 16" fill="#8AC831" xmlns="http://www.w3.org/2000/svg">
  <path fill-rule="evenodd" clip-rule="evenodd"
        d="M12.2665 5.39151C11.3876 3.95704 9.80556 3 8 3C5.23858 3 3 5.23858 3 8C3 9.94523 4.11083 11.631 5.73275 12.4576C5.88861 12.537 6.4827 12.5718 7 12C7.27287 11.6984 7.54302 11.2615 7.83576 10.7881C8.2099 10.183 8.62095 9.51829 9.12172 9C9.64624 8.45713 10.3061 7.92163 10.8951 7.44372C11.3296 7.09108 11.7256 6.76978 12 6.5C12.4938 6.01452 12.3016 5.44874 12.2665 5.39151ZM9.89056 6.46006C9.44284 5.94214 8.78321 5.61476 8.04761 5.61476C6.69889 5.61476 5.60555 6.71533 5.60555 8.07295C5.60555 8.89705 6.0084 9.62642 6.6267 10.0724C7.05071 10.3783 7.36345 9.92817 7.78406 9.32282C7.97678 9.04545 8.19215 8.73548 8.45124 8.45072C8.68364 8.19529 8.94208 7.96299 9.17998 7.74914C9.75305 7.23403 10.2069 6.82604 9.89056 6.46006Z"
  />
  <path fill-rule="evenodd" clip-rule="evenodd"
        d="M8 15C11.866 15 15 11.866 15 8C15 4.13401 11.866 1 8 1C4.13401 1 1 4.13401 1 8C1 11.866 4.13401 15 8 15ZM8 14C11.3137 14 14 11.3137 14 8C14 4.68629 11.3137 2 8 2C4.68629 2 2 4.68629 2 8C2 11.3137 4.68629 14 8 14Z"
  />
</svg>

<svg xmlns="http://www.w3.org/2000/svg" width="16" height="16" fill="#8AC831" data-big="true"><path fill-rule="evenodd" d="M12.267 5.392a5 5 0 1 0-6.534 7.066c.156.079.75.114 1.267-.458.273-.302.543-.739.836-1.212.374-.605.785-1.27 1.286-1.788.524-.543 1.184-1.078 1.773-1.556.435-.353.83-.674 1.105-.944.494-.485.302-1.051.267-1.108M9.89 6.46a2.43 2.43 0 0 0-1.843-.845 2.45 2.45 0 0 0-2.442 2.458 2.46 2.46 0 0 0 1.02 2c.425.305.737-.145 1.158-.75.193-.278.408-.588.667-.872.233-.256.491-.488.729-.702.573-.515 1.027-.923.71-1.289" clip-rule="evenodd"/><path fill-rule="evenodd" d="M8 15A7 7 0 1 0 8 1a7 7 0 0 0 0 14m0-1A6 6 0 1 0 8 2a6 6 0 0 0 0 12" clip-rule="evenodd"/></svg>
